X:1
T:Lord Randall
M:3/4
L:1/4
K:G
 G| B3/2- B/2B/2 c/2| d- c A| A G F| G z d| e ce/2-e/2| g- f e| d B/2c/2 d-|\
 d z d| e e f| g/2 B3/2 B/2B/2| c d e| d z G/2A/2| B3/2 B/2B/2 c/2|\
 d cA/2-A/2| A G F| G2||
